static/images/mobile/copyright/wikipedia-wordmark-chy.svg

<svg width="120" height="18" viewBox="0 0 120 18" fill="none" xmlns="http://www.w3.org/2000/svg">
<path fill-rule="evenodd" clip-rule="evenodd" d="M102.901 0C103.39 9.81171e-06 103.782 0.224342 104.079 0.672953C104.375 1.1136 104.523 1.70243 104.523 2.43945C104.523 3.25662 104.235 3.95361 103.658 4.53042C103.089 5.10725 102.412 5.46776 101.627 5.61196C101.483 5.46776 101.407 5.27148 101.399 5.02311C101.992 4.87892 102.5 4.59052 102.925 4.1579C103.35 3.71728 103.562 3.34876 103.562 3.05233C103.562 2.61171 103.27 2.35936 102.685 2.29526C101.964 2.18312 101.603 1.8226 101.603 1.21372C101.603 0.869254 101.723 0.580833 101.964 0.348491C102.212 0.116179 102.525 9.81171e-06 102.901 0ZM108.037 16.4307L107.297 16.3787C106.353 16.3022 106.021 15.74 106.276 15.0983L107.757 11.3983C107.884 11.0686 108.037 10.9666 108.649 10.9666H113.957L115.513 15.2798C115.769 15.9921 115.41 16.3002 114.442 16.3758L113.727 16.4278C113.597 16.4278 113.546 16.5033 113.546 16.6328V17.1156L113.569 17.1676C113.569 17.1676 116.07 17.1156 116.963 17.1156C117.959 17.1156 119.923 17.1676 119.923 17.1676L120 17.1156V16.6328C120 16.5033 119.872 16.4278 119.744 16.4278L119.464 16.4032C118.444 16.3012 117.933 15.9195 117.575 14.9236L112.345 1.09695C112.142 0.586745 112.013 0.330661 111.658 0.330661C111.273 0.330661 111.068 0.586743 110.789 1.25001L105.126 14.5164C104.412 16.1491 103.776 16.3542 102.653 16.4307C102.524 16.4307 102.448 16.5072 102.448 16.6338V17.1185L102.5 17.1705C102.5 17.1705 104.132 17.1185 104.797 17.1185C105.409 17.1185 108.19 17.1705 108.19 17.1705L108.241 17.1185V16.6338C108.241 16.5072 108.139 16.4307 108.037 16.4307ZM111.072 3.08677L113.547 9.89708V9.89806H109.107C108.546 9.89806 108.368 9.82349 108.47 9.56643L111.021 3.08677H111.072ZM32.468 16.3787C31.7282 16.2511 31.3965 15.9705 31.3965 15.4093V11.6288C31.9578 11.6288 32.3659 11.7544 32.7486 12.2656L35.5802 15.7871C35.9374 16.1952 35.9629 16.4739 35.9629 16.8065V17.1126L35.9884 17.1381C35.9884 17.1381 36.9068 17.1126 37.5445 17.1126C38.2588 17.1126 39.6109 17.1381 39.6109 17.1381L39.6874 17.1126V16.5769C39.6874 16.5004 39.5854 16.4493 39.5089 16.4248L39.3813 16.4003C38.8711 16.2992 38.2588 16.1452 37.9527 15.789L34.1006 11.1461C33.9731 10.9931 33.871 10.8665 33.871 10.7134C33.871 10.5084 34.0241 10.2297 34.4578 9.76855L36.6517 7.24497C37.5682 6.20114 38.2561 6.14823 39.2478 6.07195L39.2537 6.07149C39.3813 6.07149 39.4578 6.02048 39.4578 5.94394V5.35524L39.3813 5.33169C39.3813 5.33169 38.2588 5.38272 37.5956 5.38272C36.8558 5.38272 34.7894 5.33169 34.7894 5.33169L34.7639 5.35524V5.94394C34.7639 6.02048 34.8149 6.04795 34.917 6.07149C35.4272 6.14999 35.6568 6.37762 35.6568 6.58269C35.6568 7.07033 34.8659 8.01029 33.8455 9.13471C32.7231 10.3357 32.2384 10.7674 31.3965 10.7674V6.91432C31.3965 6.40313 31.6771 6.2746 32.468 6.12252L32.7486 6.07051C32.8506 6.045 32.9016 6.01949 32.9016 5.94296V5.38173L32.8761 5.33071C32.8761 5.33071 31.27 5.38173 30.5547 5.38173C29.7639 5.38173 27.672 5.33071 27.672 5.33071L27.6465 5.38173V5.96946C27.6465 6.04795 27.723 6.07149 27.8251 6.07149L28.3353 6.12448C29.1516 6.19905 29.4322 6.35505 29.4322 6.91432V15.4093C29.4322 15.894 29.1006 16.3022 28.3353 16.3787L27.8251 16.4307C27.723 16.4307 27.6465 16.4807 27.6465 16.5828V17.1185L27.6975 17.1705C27.6975 17.1705 29.7894 17.1185 30.5037 17.1185C31.269 17.1185 32.8761 17.1705 32.8761 17.1705L32.9016 17.1185V16.5828C32.9016 16.4807 32.8251 16.4552 32.7486 16.4307L32.468 16.3787ZM53.4238 6.07443C54.6228 6.15096 54.9544 6.17648 54.9544 6.9673L54.9574 15.5378C54.9574 16.0225 54.7023 16.2521 53.9115 16.3542L53.3757 16.4307C53.2737 16.4552 53.2227 16.4807 53.2227 16.5828V17.1185L53.2482 17.1705C53.2482 17.1705 55.1615 17.1185 55.8758 17.1185C56.6666 17.1185 58.7084 17.1705 58.7084 17.1705L58.732 17.1185V16.5828C58.732 16.4827 58.6544 16.4552 58.5524 16.4307L58.0412 16.3542C57.2239 16.2276 56.9178 16.0981 56.9178 15.5378V12.1214C57.3779 12.3245 57.8881 12.3765 58.5259 12.3765C62.1464 12.3765 62.8862 9.97949 62.8862 8.44788C62.8862 7.11938 62.223 5.33463 58.6024 5.33463C58.0977 5.33463 57.571 5.34922 57.081 5.3628C56.6547 5.37461 56.2561 5.38565 55.9238 5.38565C55.4935 5.38565 54.8043 5.36839 54.2276 5.35395L54.2275 5.35395C53.8128 5.34356 53.4563 5.33463 53.2963 5.33463L53.2452 5.36014V5.94688C53.2452 5.99888 53.2708 6.07443 53.4238 6.07443ZM58.5769 11.6367C58.0667 11.6367 57.429 11.6122 56.9188 11.4071L56.9178 6.96828C56.9178 6.30501 57.2239 6.07541 58.4494 6.07541C59.8505 6.07541 60.8454 6.56011 60.8454 8.75401C60.8454 10.7164 60.1085 11.6367 58.5769 11.6367ZM67.273 17.1185C66.5077 17.1185 64.7485 17.1705 64.7485 17.1705L64.722 17.1185V16.5573C64.722 16.5072 64.7485 16.4307 64.8751 16.4307L65.4638 16.3787C66.2556 16.3022 66.4852 15.792 66.4852 15.2827V6.86428C66.4852 6.27558 66.179 6.17452 65.4638 6.12448L64.8751 6.07149C64.722 6.04795 64.722 5.99595 64.722 5.96946V5.38173L64.7485 5.33071C64.7485 5.33071 66.7373 5.38173 67.5026 5.38173H71.2527C72.018 5.38173 73.8302 5.33071 73.8302 5.33071L73.8832 5.38173C73.9068 6.47868 74.0853 7.47555 74.2659 8.44396L73.6301 8.54601C73.3504 7.60114 72.8657 6.25007 71.2331 6.25007H69.1922C68.7075 6.25007 68.4524 6.42864 68.4524 6.86134V10.5613H70.3647C71.08 10.5613 71.2576 10.2552 71.3606 9.745L71.5127 9.20928C71.5127 9.13275 71.5647 9.08075 71.6658 9.08075H72.0975C72.1505 9.08075 72.1505 9.10724 72.1505 9.15728C72.137 9.29949 72.1205 9.45175 72.1034 9.60981C72.0531 10.0744 71.9974 10.5892 71.9974 11.046C71.9974 11.4705 72.0427 11.8506 72.0881 12.2306C72.1108 12.4206 72.1334 12.6107 72.1505 12.8063L72.0975 12.8583H71.6658C71.5392 12.8583 71.4852 12.8063 71.4852 12.7297L71.3577 12.1695C71.2556 11.6583 71.026 11.3777 70.3598 11.3777H68.4485V15.2817C68.4485 15.7645 68.7262 16.2492 69.1883 16.2492H71.6118C72.9128 16.2492 73.6291 15.4329 73.9332 14.1043L74.569 14.1809L74.0579 17.1136L74.0068 17.1646C74.0068 17.1646 72.5017 17.1136 71.7364 17.1136L67.273 17.1185ZM18.499 17.1185C17.7337 17.1185 15.9745 17.1705 15.9745 17.1705L15.948 17.1185V16.5573C15.948 16.5072 15.9745 16.4307 16.101 16.4307L16.6897 16.3787C17.4815 16.3022 17.7111 15.792 17.7111 15.2827V6.86428C17.7111 6.27558 17.405 6.17452 16.6897 6.12448L16.101 6.07149C15.948 6.04795 15.948 5.99595 15.948 5.96946V5.38173L15.9745 5.33071C15.9745 5.33071 17.9633 5.38173 18.7286 5.38173H22.4787C23.244 5.38173 25.0562 5.33071 25.0562 5.33071L25.1092 5.38173C25.1327 6.47868 25.3113 7.47555 25.4918 8.44396L24.856 8.54601C24.5764 7.60114 24.0917 6.25007 22.459 6.25007H20.4182C19.9335 6.25007 19.6784 6.42864 19.6784 6.86134V10.5613H21.5907C22.306 10.5613 22.4836 10.2552 22.5866 9.745L22.7387 9.20928C22.7387 9.13275 22.7907 9.08075 22.8917 9.08075H23.3234C23.3764 9.08075 23.3764 9.10724 23.3764 9.15728C23.363 9.29946 23.3465 9.45168 23.3294 9.6097L23.3294 9.60975L23.3294 9.60978C23.2791 10.0744 23.2234 10.5892 23.2234 11.046C23.2234 11.4706 23.2687 11.8506 23.3141 12.2307C23.3367 12.4207 23.3594 12.6107 23.3764 12.8063L23.3234 12.8583H22.8917C22.7652 12.8583 22.7112 12.8063 22.7112 12.7297L22.5836 12.1695C22.4816 11.6583 22.252 11.3777 21.5858 11.3777H19.6745V15.2817C19.6745 15.7645 19.9521 16.2492 20.4143 16.2492H22.8378C24.1388 16.2492 24.8551 15.4329 25.1592 14.1043L25.795 14.1809L25.2838 17.1136L25.2328 17.1646C25.2328 17.1646 23.7277 17.1136 22.9624 17.1136L18.499 17.1185ZM41.5536 17.1705C41.5536 17.1705 43.3128 17.1185 44.0782 17.1185L48.5415 17.1136C49.3068 17.1136 50.8119 17.1646 50.8119 17.1646L50.863 17.1136L51.3742 14.1809L50.7384 14.1043C50.4342 15.4329 49.7179 16.2492 48.4169 16.2492H45.9934C45.5313 16.2492 45.2536 15.7645 45.2536 15.2817V11.3777H47.1649C47.8311 11.3777 48.0607 11.6583 48.1628 12.1695L48.2903 12.7297C48.2903 12.8063 48.3443 12.8583 48.4709 12.8583H48.9026L48.9556 12.8063C48.9386 12.6107 48.9159 12.4207 48.8932 12.2307C48.8479 11.8506 48.8025 11.4706 48.8025 11.046C48.8025 10.5892 48.8582 10.0746 48.9085 9.60999L48.9085 9.60992L48.9085 9.60974C48.9256 9.4517 48.9421 9.29947 48.9556 9.15728C48.9556 9.10724 48.9556 9.08075 48.9026 9.08075H48.4709C48.3698 9.08075 48.3178 9.13275 48.3178 9.20928L48.1657 9.745C48.0627 10.2552 47.8851 10.5613 47.1698 10.5613H45.2575V6.86134C45.2575 6.42864 45.5126 6.25007 45.9973 6.25007H48.0382C49.6708 6.25007 50.1555 7.60114 50.4352 8.54601L51.071 8.44396C50.8904 7.47555 50.7119 6.47868 50.6883 5.38173L50.6353 5.33071C50.6353 5.33071 48.8231 5.38173 48.0578 5.38173H44.3078C43.5424 5.38173 41.5536 5.33071 41.5536 5.33071L41.5271 5.38173V5.96946C41.5271 5.99595 41.5271 6.04795 41.6802 6.07149L42.2689 6.12448C42.9842 6.17452 43.2903 6.27558 43.2903 6.86428V15.2827C43.2903 15.792 43.0607 16.3022 42.2689 16.3787L41.6802 16.4307C41.5536 16.4307 41.5271 16.5072 41.5271 16.5573V17.1185L41.5536 17.1705ZM83.1929 13.9782C83.1929 15.0088 83.2934 15.6456 83.4945 15.8886C83.704 16.1232 84.2193 16.2698 85.0404 16.3284C85.1242 16.4122 85.166 16.5589 85.1661 16.7683C85.1744 16.9694 85.1325 17.1035 85.0404 17.1705C83.5657 17.137 82.6148 17.1202 82.1875 17.1202C81.7099 17.1202 80.7505 17.137 79.3094 17.1705C79.2424 17.1035 79.2047 16.9694 79.1963 16.7683C79.1963 16.5589 79.234 16.4122 79.3094 16.3284C80.1305 16.2614 80.6416 16.1106 80.8427 15.876C81.0522 15.6414 81.1569 15.0088 81.1569 13.9782V7.46807C81.1569 7.12456 81.0731 6.82293 80.9055 6.56318C80.7463 6.29507 80.495 6.16102 80.1515 6.16101H79.0455C78.4757 6.16102 78.0694 6.31602 77.8264 6.62602C77.5918 6.92766 77.3362 7.56024 77.0598 8.52377C76.8168 8.54054 76.5864 8.5154 76.3685 8.44837C76.5026 7.64403 76.5738 6.46683 76.5822 4.91678C76.8419 4.88328 77.0556 4.88328 77.2231 4.91678C77.3069 5.15977 77.5373 5.28126 77.9144 5.28125H86.1715C86.5485 5.28126 86.7831 5.15977 86.8753 4.91678C87.1183 4.84976 87.3319 4.84976 87.5163 4.91678C87.5162 6.3244 87.5833 7.50159 87.7173 8.44837C87.5498 8.54892 87.3193 8.57405 87.0261 8.52377C86.7664 7.577 86.5108 6.9486 86.2595 6.63859C86.0165 6.32021 85.6185 6.16102 85.0655 6.16101H84.2235C83.8967 6.16102 83.6411 6.29926 83.4568 6.57575C83.2809 6.84387 83.1929 7.14969 83.1929 7.4932V13.9782ZM89.7144 17.1705C89.7144 17.1705 91.4736 17.1185 92.239 17.1185L96.7023 17.1136C97.4676 17.1136 98.9727 17.1646 98.9727 17.1646L99.0238 17.1136L99.535 14.1809L98.8991 14.1043C98.595 15.4329 97.8787 16.2492 96.5777 16.2492H94.1542C93.6921 16.2492 93.4144 15.7645 93.4144 15.2817V11.3777H95.3257C95.9919 11.3777 96.2215 11.6583 96.3236 12.1695L96.4511 12.7297C96.4511 12.8063 96.5051 12.8583 96.6317 12.8583H97.0634L97.1164 12.8063C97.0993 12.6107 97.0767 12.4206 97.054 12.2306C97.0086 11.8506 96.9633 11.4705 96.9633 11.046C96.9633 10.5892 97.019 10.0744 97.0693 9.60981C97.0864 9.45175 97.1029 9.29949 97.1164 9.15728C97.1164 9.10724 97.1164 9.08075 97.0634 9.08075H96.6317C96.5306 9.08075 96.4786 9.13275 96.4786 9.20928L96.3265 9.745C96.2235 10.2552 96.0459 10.5613 95.3306 10.5613H93.4183V6.86134C93.4183 6.42864 93.6734 6.25007 94.1581 6.25007H96.199C97.8316 6.25007 98.3163 7.60114 98.596 8.54601L99.2318 8.44396C99.0512 7.47555 98.8727 6.47868 98.8491 5.38173L98.7961 5.33071C98.7961 5.33071 96.9839 5.38173 96.2186 5.38173H92.4686C91.7032 5.38173 89.7144 5.33071 89.7144 5.33071L89.6879 5.38173V5.96946C89.6879 5.99595 89.6879 6.04795 89.841 6.07149L90.4297 6.12448C91.145 6.17452 91.4511 6.27558 91.4511 6.86428V15.2827C91.4511 15.792 91.2215 16.3022 90.4297 16.3787L89.841 16.4307C89.7144 16.4307 89.6879 16.5072 89.6879 16.5573V17.1185L89.7144 17.1705ZM11.5353 0.446172C11.5438 0.658157 11.582 0.798056 11.6498 0.86587C12.5485 0.933716 13.0827 1.14568 13.2523 1.50178C13.4303 1.8579 13.354 2.39206 13.0234 3.10426L8.9154 13.5458H8.78822L4.64211 2.93892C4.3284 2.16737 4.25209 1.65441 4.41319 1.40003C4.57428 1.13721 5.09148 0.959152 5.9648 0.86587C6.03262 0.789577 6.06654 0.649678 6.06654 0.446172C6.06654 0.23422 6.03262 0.0858419 5.9648 0.0010376C4.3284 0.0349694 3.27703 0.0519269 2.8107 0.0519101C2.64113 0.0519269 1.73814 0.0349694 0.101745 0.0010376C0.033915 0.0858419 0 0.22998 0 0.433454C0 0.63696 0.0423937 0.781098 0.127181 0.86587C0.839395 0.925237 1.30573 1.08209 1.52617 1.33644C1.7551 1.58234 2.06881 2.214 2.46731 3.23144L7.60543 16.56C7.75804 16.967 7.95729 17.1705 8.20319 17.1705C8.46602 17.162 8.67375 16.9585 8.82637 16.56L14.2189 3.28231C14.363 2.92622 14.4605 2.68458 14.5114 2.55738C14.5707 2.43021 14.6767 2.23944 14.8293 1.98506C14.9819 1.72224 15.1303 1.53995 15.2745 1.43819C15.4271 1.32798 15.6306 1.21775 15.8849 1.10751C16.1478 0.988828 16.4445 0.908279 16.7752 0.86587C16.86 0.789577 16.9024 0.649678 16.9024 0.446172C16.9024 0.23422 16.86 0.0858419 16.7752 0.0010376C15.3847 0.0349694 14.6216 0.0519269 14.4859 0.0519101C14.2316 0.0519269 13.2862 0.0349694 11.6498 0.0010376C11.5735 0.0858419 11.5353 0.23422 11.5353 0.446172Z" fill="black"/>
</svg>

<svg xmlns="http://www.w3.org/2000/svg" width="120" height="18" fill="none"><path fill="#000" fill-rule="evenodd" d="M102.901 0c.489 0 .881.224 1.178.673.296.44.444 1.03.444 1.766 0 .818-.288 1.515-.865 2.091a3.742 3.742 0 0 1-2.031 1.082c-.144-.144-.22-.34-.228-.589a3.136 3.136 0 0 0 1.526-.865c.425-.44.637-.81.637-1.106 0-.44-.292-.693-.877-.757-.721-.112-1.082-.472-1.082-1.081 0-.345.12-.633.361-.866.248-.232.561-.348.937-.348Zm5.136 16.43-.74-.051c-.944-.077-1.276-.639-1.021-1.28l1.481-3.7c.127-.33.28-.432.892-.432h5.308l1.556 4.313c.256.712-.103 1.02-1.071 1.096l-.715.052c-.13 0-.181.075-.181.205v.483l.023.052s2.501-.052 3.394-.052c.996 0 2.96.052 2.96.052l.077-.052v-.483c0-.13-.128-.205-.256-.205l-.28-.025c-1.02-.102-1.531-.483-1.889-1.48l-5.23-13.826c-.203-.51-.332-.766-.687-.766-.385 0-.59.256-.869.919l-5.663 13.266c-.714 1.633-1.35 1.838-2.473 1.915-.129 0-.205.076-.205.203v.485l.052.052s1.632-.052 2.297-.052c.612 0 3.393.052 3.393.052l.051-.052v-.485a.2.2 0 0 0-.204-.203Zm3.035-13.343 2.475 6.81v.001h-4.44c-.561 0-.739-.075-.637-.332l2.551-6.48h.051ZM32.468 16.379c-.74-.128-1.072-.409-1.072-.97v-3.78c.562 0 .97.125 1.353.637l2.831 3.521c.357.408.383.687.383 1.02v.306l.025.025s.919-.025 1.556-.025c.715 0 2.067.025 2.067.025l.076-.025v-.536c0-.077-.102-.128-.178-.152l-.128-.025c-.51-.1-1.122-.255-1.428-.611L34.1 11.146c-.128-.153-.23-.28-.23-.433 0-.205.153-.483.587-.944l2.194-2.524c.916-1.044 1.604-1.097 2.596-1.173h.006c.127 0 .204-.052.204-.128v-.589l-.077-.023s-1.122.05-1.785.05c-.74 0-2.807-.05-2.807-.05l-.025.023v.589c0 .076.05.104.153.127.51.079.74.307.74.512 0 .487-.791 1.427-1.811 2.552-1.123 1.2-1.608 1.632-2.45 1.632V6.914c0-.51.281-.64 1.072-.791l.28-.052c.103-.026.154-.052.154-.128v-.561l-.026-.051s-1.606.05-2.321.05c-.791 0-2.883-.05-2.883-.05l-.026.05v.588c0 .079.077.102.18.102l.51.053c.816.075 1.096.231 1.096.79v8.495c0 .485-.331.893-1.097.97l-.51.052c-.102 0-.178.05-.178.152v.536l.05.052s2.092-.052 2.807-.052c.765 0 2.372.052 2.372.052l.026-.052v-.536c0-.102-.077-.128-.153-.152l-.281-.052ZM53.424 6.074c1.199.077 1.53.102 1.53.893l.003 8.57c0 .486-.255.715-1.046.817l-.535.077c-.102.024-.153.05-.153.152v.536l.025.052s1.913-.052 2.628-.052c.79 0 2.832.052 2.832.052l.024-.052v-.536c0-.1-.078-.128-.18-.152l-.51-.077c-.818-.126-1.124-.256-1.124-.816V12.12c.46.204.97.255 1.608.255 3.62 0 4.36-2.397 4.36-3.928 0-1.329-.663-3.113-4.284-3.113-.504 0-1.031.014-1.521.028-.426.012-.825.023-1.157.023-.43 0-1.12-.018-1.696-.032-.415-.01-.772-.02-.932-.02l-.05.026v.587c0 .052.025.127.178.127Zm5.153 5.563c-.51 0-1.148-.025-1.658-.23l-.001-4.439c0-.663.306-.893 1.531-.893 1.401 0 2.396.485 2.396 2.679 0 1.962-.736 2.883-2.268 2.883Zm8.696 5.482c-.765 0-2.524.052-2.524.052l-.027-.052v-.562c0-.05.027-.126.153-.126l.589-.052c.792-.077 1.021-.587 1.021-1.096V6.864c0-.588-.306-.69-1.021-.74l-.589-.053c-.153-.023-.153-.075-.153-.102v-.587l.027-.051s1.988.05 2.754.05h3.75c.765 0 2.577-.05 2.577-.05l.053.05c.024 1.098.202 2.095.383 3.063l-.636.102c-.28-.945-.764-2.296-2.397-2.296h-2.04c-.486 0-.74.179-.74.611v3.7h1.912c.715 0 .893-.306.996-.816l.152-.536c0-.076.052-.128.153-.128h.431c.053 0 .053.026.053.076-.013.142-.03.295-.047.453-.05.464-.106.98-.106 1.436 0 .425.046.805.091 1.185.023.19.045.38.063.575l-.053.052h-.432c-.127 0-.18-.052-.18-.128l-.128-.56c-.102-.512-.332-.792-.998-.792h-1.912v3.904c0 .482.278.967.74.967h2.424c1.3 0 2.017-.816 2.321-2.145l.636.077-.511 2.933-.051.05s-1.505-.05-2.27-.05l-4.464.005Zm-48.774 0c-.765 0-2.524.052-2.524.052l-.027-.052v-.562c0-.05.027-.126.153-.126l.589-.052c.791-.077 1.021-.587 1.021-1.096V6.864c0-.588-.306-.69-1.021-.74l-.589-.053c-.153-.023-.153-.075-.153-.102v-.587l.027-.051s1.988.05 2.754.05h3.75c.765 0 2.577-.05 2.577-.05l.053.05c.024 1.098.202 2.095.383 3.063l-.636.102c-.28-.945-.764-2.296-2.397-2.296h-2.04c-.486 0-.74.179-.74.611v3.7h1.912c.715 0 .893-.306.996-.816l.152-.536c0-.076.052-.128.153-.128h.431c.053 0 .053.026.053.076-.013.142-.03.295-.047.453-.05.464-.106.98-.106 1.436 0 .425.046.805.091 1.185.023.19.045.38.062.575l-.053.052h-.431c-.127 0-.18-.052-.18-.128l-.128-.56c-.102-.512-.332-.792-.998-.792h-1.912v3.904c0 .482.278.967.74.967h2.424c1.3 0 2.017-.816 2.321-2.145l.636.077-.511 2.933-.051.05s-1.505-.05-2.27-.05l-4.464.005Zm23.055.052s1.759-.052 2.524-.052l4.463-.005c.766 0 2.27.05 2.27.05l.052-.05.511-2.933-.636-.077c-.304 1.329-1.02 2.145-2.321 2.145h-2.424c-.462 0-.74-.484-.74-.967v-3.904h1.912c.666 0 .896.28.998.791l.127.56c0 .077.054.13.18.13h.433l.053-.053c-.017-.195-.04-.385-.063-.575-.045-.38-.09-.76-.09-1.185 0-.457.055-.971.105-1.436.018-.158.034-.31.048-.453 0-.05 0-.076-.053-.076h-.432c-.101 0-.153.052-.153.128l-.152.536c-.103.51-.28.816-.996.816h-1.913v-3.7c0-.432.256-.61.74-.61h2.041c1.633 0 2.118 1.35 2.397 2.295l.636-.102c-.18-.968-.36-1.965-.383-3.062l-.053-.051s-1.812.05-2.577.05h-3.75c-.766 0-2.754-.05-2.754-.05l-.027.05v.588c0 .027 0 .079.153.102l.589.053c.715.05 1.021.152 1.021.74v8.419c0 .509-.23 1.02-1.021 1.096l-.589.052c-.126 0-.153.076-.153.126v.562l.027.052Zm41.639-3.193c0 1.03.1 1.668.302 1.91.209.235.724.382 1.545.44.084.084.126.23.126.44.008.201-.034.335-.126.402a166.86 166.86 0 0 0-2.853-.05c-.477 0-1.436.017-2.878.05-.067-.067-.104-.2-.113-.402 0-.21.038-.356.113-.44.822-.067 1.333-.217 1.534-.452.21-.235.314-.867.314-1.898v-6.51c0-.343-.084-.645-.251-.905-.16-.268-.411-.402-.755-.402h-1.105c-.57 0-.977.155-1.22.465-.234.302-.49.934-.766 1.898a1.89 1.89 0 0 1-.692-.076c.135-.804.206-1.981.214-3.531.26-.034.474-.034.641 0 .084.243.314.364.691.364h8.257c.377 0 .612-.121.704-.364.243-.067.457-.067.641 0 0 1.407.067 2.585.201 3.531-.167.1-.398.126-.69.076-.26-.947-.516-1.575-.767-1.885-.244-.319-.642-.478-1.195-.478h-.841a.873.873 0 0 0-.767.415 1.635 1.635 0 0 0-.264.917v6.485Zm6.521 3.193s1.76-.052 2.525-.052l4.463-.005c.766 0 2.27.05 2.27.05l.052-.05.511-2.933-.636-.077c-.304 1.329-1.02 2.145-2.321 2.145h-2.424c-.462 0-.74-.484-.74-.967v-3.904h1.912c.666 0 .896.28.998.791l.127.56c0 .077.054.13.18.13h.432l.053-.053c-.017-.195-.04-.385-.062-.575a9.67 9.67 0 0 1-.09-1.185c0-.457.055-.972.105-1.436.017-.158.034-.31.047-.453 0-.05 0-.076-.053-.076h-.431c-.101 0-.153.052-.153.128l-.153.536c-.102.51-.28.816-.995.816h-1.913v-3.7c0-.432.255-.61.74-.61H96.2c1.633 0 2.117 1.35 2.397 2.295l.636-.102c-.18-.968-.36-1.965-.383-3.062l-.053-.051s-1.812.05-2.577.05h-3.75c-.766 0-2.755-.05-2.755-.05l-.026.05v.588c0 .027 0 .079.153.102l.589.053c.715.05 1.021.152 1.021.74v8.419c0 .509-.23 1.02-1.021 1.096l-.589.052c-.127 0-.153.076-.153.126v.562l.026.052ZM11.535.445c.009.212.047.352.115.42.899.068 1.433.28 1.602.636.178.356.102.89-.229 1.602L8.915 13.546h-.127L4.642 2.939c-.314-.772-.39-1.285-.229-1.539.161-.263.678-.44 1.552-.534.068-.076.102-.216.102-.42 0-.212-.034-.36-.102-.445-1.637.034-2.688.05-3.154.05C2.64.052 1.738.036.1.002.035.086 0 .23 0 .433c0 .204.042.348.127.433.712.06 1.179.216 1.4.47.228.246.542.878.94 1.895L7.605 16.56c.153.407.352.61.598.61.263-.008.47-.212.623-.61L14.22 3.282c.144-.356.242-.597.292-.725a6.99 6.99 0 0 1 .318-.572c.153-.263.301-.445.445-.547.153-.11.357-.22.61-.33.264-.12.56-.2.891-.242.085-.076.127-.216.127-.42 0-.212-.042-.36-.127-.445-1.39.034-2.153.05-2.29.05-.253 0-1.199-.016-2.835-.05-.077.085-.115.233-.115.445Z" clip-rule="evenodd"/></svg>
